X:1
T:His Is the Love
T:His Is the Love
T:James McGranahan
T:Maud Fraser Jackson, 1899
T:Public Domain Courtesy of the Cyber Hymnal™
C:James McGranahan
Z:Public Domain
Z:Courtesy of the Cyber Hymnal™
%%score ( 1 2 ) ( 3 4 )
L:1/8
Q:1/4=105
M:6/8
K:Bb
V:1 treble 
V:2 treble 
V:3 bass 
V:4 bass 
V:1
 [B,D][CE][DF] [EG]2 [DF] | [DB]3 [=EB]2 [EB] | [EA]2 [CE] [FA]2 [EG] | ([EG]3 [DF]3) | %4
w: 1.~His is the love we|live by, And|His the blood that|saves; *|
w: 2.~His is the love we|live by, Who|died to set us|free; *|
w: 3.~His is the love we|live by; No|o- ther love so|dear; *|
 [B,D][CE][DF] [EG]2 F | [^Fd]3 [Gd]2 [Gd] | [Gd]2 [Gc] [Fe]2 [EA] | [DB]3- [DB]2 || %8
w: His is the grace we|stand by, The|on- ly grace that|saves. *|
w: His is the arm we|win by, Our|all suf- fi- cien-|cy. *|
w: His is the love we’ll|die by, Which|cast- eth out all|fear. *|
"^Refrain" [DB] | [GB]3- [GB]2 [GB] | [^FA]3- [FA]2 D | [DG]2 [DA] [DB]2 [Gc] | d6 | %13
w: |||||
w: His|love, * His|love, * Its|tide is flow- ing|free;|
w: |||||
 [Bd][Bd][Bd] [_Ad]2 [Af] | [Gf]3 [Ge]3 |!>(! [FA][FB][Fc]!>)!"^riten." [Fd]2 [Ec] | [DB]6 |] %17
w: ||||
w: His is the love to|live by,|His is the love for|me.|
w: ||||
V:2
 x6 | x6 | x6 | x6 | x5 F | x6 | x6 | x5 || x | x6 | x5 D | x6 | (^F2 G A3) | x6 | x6 | x6 | x6 |] %17
V:3
 [B,,F,][B,,B,][B,,B,] [B,,B,]2 B, | [G,B,]3 [C,G,]2 [C,C] | [F,C]2 [F,A,] [G,C]2 [F,A,] | %3
w: ~ ~ ~ ~ ~|~ ~ ~|~ ~ ~ ~|
 [B,,B,]6 | [B,,F,][B,,B,][B,,B,] [B,,B,]2 [B,D] | (D2 C) [G,B,]2 [D,B,] | %6
w: ~|~ ~ ~ ~ ~|~ * ~ ~|
 [E,B,]2 [E,B,] [F,A,]2 F, | [B,,F,]3- [B,,F,]2 || z | z2 [G,D] [G,D]2 [G,D] | %10
w: ~ ~ ~ ~|~ *||His love, His|
 [D,D]2 [D,D] [D,D]2 [D,D] | [B,D]2 [A,C] [G,B,]2 [E,G,] | A,2 B, C3 | %13
w: won- drous love, ~|~ ~ ~ ~|full and free;|
 [G,B,][G,B,][G,B,] [D,=B,]2 [D,B,] | [E,C]3 [E,C]3 |!>(! [F,C][F,D][F,E]!>)! [F,A,]2 [F,A,] | %16
w: |||
 [B,,B,]6 |] %17
w: |
V:4
 x5 B, | x6 | x6 | x6 | x6 | A,3 x3 | x5 F, | x5 || x | x6 | x6 | x6 | D,6 | x6 | x6 | x6 | x6 |] %17

